**kern	**kern	**dynam
*part1	*part1	*part1
*staff2	*staff1	*
*I"Piano	*	*
*clefF4	*clefG2	*
*k[]	*k[]	*
=1	=1	=1
!	!LO:TX:a:i:t=più lento.	!
4C'	4G' 4c 4e-X	.
4C'	4G' 4c 4e-	.
8r	8r	.
8C	8G 8c 8e-	.
=	=	=
4BB-X'	4G' 4d	.
4BB-'	4G' 4d	.
8r	8r	.
8BB-	8G 8d	.
=	=	=
4AA-X	4r	.
4A-X	(4c 4e-X	.
4A- 4B-X	4d 4f	.
=	=	=
2.G; 2.B-X	2.e-X;) 2.g	.
=	=	=
4FF	4r	pp
4F	4c 4d 4a-X	.
4G	4c 4d 4g	.
=	=	=
4.A-X	4.c 4.d 4.f	.
8G	8g	.
4F	4c 4d 4a-X	.
=	=	=
*^	*^	*
4c	[2G	2g	2.d	.
2Bn	.	.	.	.
.	4GG 4G]	4f	.	.
*v	*v	*	*	*
*	*v	*v	*
=	=	=
*-	*-	*-
!!!system-decoration: {(s1,s2)}
